Development/img/icon-skills.svg

<?xml version="1.0" encoding="UTF-8" standalone="no"?>
<svg
   xmlns:dc="http://purl.org/dc/elements/1.1/"
   xmlns:cc="http://creativecommons.org/ns#"
   xmlns:rdf="http://www.w3.org/1999/02/22-rdf-syntax-ns#"
   xmlns:svg="http://www.w3.org/2000/svg"
   xmlns="http://www.w3.org/2000/svg"
   xmlns:sodipodi="http://sodipodi.sourceforge.net/DTD/sodipodi-0.dtd"
   xmlns:inkscape="http://www.inkscape.org/namespaces/inkscape"
   enable-background="new 0 0 128 128"
   height="128px"
   id="Layer_1"
   version="1.1"
   viewBox="0 0 128 128"
   width="128px"
   xml:space="preserve"
   sodipodi:docname="icon-skills.svg"
   inkscape:version="0.92.2 (5c3e80d, 2017-08-06)"><metadata
     id="metadata27"><rdf:RDF><cc:Work
         rdf:about=""><dc:format>image/svg+xml</dc:format><dc:type
           rdf:resource="http://purl.org/dc/dcmitype/StillImage" /><dc:title></dc:title></cc:Work></rdf:RDF></metadata><defs
     id="defs25" /><sodipodi:namedview
     pagecolor="#ffffff"
     bordercolor="#666666"
     borderopacity="1"
     objecttolerance="10"
     gridtolerance="10"
     guidetolerance="10"
     inkscape:pageopacity="0"
     inkscape:pageshadow="2"
     inkscape:window-width="1618"
     inkscape:window-height="1027"
     id="namedview23"
     showgrid="false"
     inkscape:pagecheckerboard="true"
     inkscape:zoom="2.6074563"
     inkscape:cx="57.448069"
     inkscape:cy="89.646687"
     inkscape:window-x="54"
     inkscape:window-y="-8"
     inkscape:window-maximized="1"
     inkscape:current-layer="layer2" /><g
     inkscape:groupmode="layer"
     id="layer2"
     inkscape:label="Layer 2"><circle
       style="opacity:1;fill:#d35627;fill-opacity:1;stroke:none;stroke-width:1.66213667;stroke-linecap:round;stroke-linejoin:round;stroke-miterlimit:4;stroke-dasharray:none;stroke-opacity:1"
       id="path849"
       cx="64"
       cy="64"
       r="64" /></g><g
     inkscape:groupmode="layer"
     id="layer3"
     inkscape:label="Layer 3"><rect
       style="opacity:1;fill:#ffffff;fill-opacity:1;stroke:none;stroke-width:1.57046044;stroke-linecap:round;stroke-linejoin:round;stroke-miterlimit:4;stroke-dasharray:none;stroke-opacity:1"
       id="rect860"
       width="96"
       height="61.830509"
       x="15.728813"
       y="33.627117" /><rect
       style="opacity:1;fill:#ffffff;fill-opacity:1;stroke:none;stroke-width:1.5;stroke-linecap:round;stroke-linejoin:round;stroke-miterlimit:4;stroke-dasharray:none;stroke-opacity:1"
       id="rect862"
       width="67.932205"
       height="8.6779661"
       x="29.966103"
       y="28.067797" /><rect
       style="opacity:1;fill:#ffffff;fill-opacity:1;stroke:none;stroke-width:1.5;stroke-linecap:round;stroke-linejoin:round;stroke-miterlimit:4;stroke-dasharray:none;stroke-opacity:1"
       id="rect864"
       width="12.474576"
       height="9.7627115"
       x="58.033897"
       y="91.932205" /></g><g
     inkscape:groupmode="layer"
     id="layer1"
     inkscape:label="Layer 1"
     style="display:inline"><g
       id="g6"
       transform="matrix(0.89265537,0,0,0.89265537,6.2259882,7.4802261)"><g
         id="g4"><path
           d="m 108,24 h -7.223 L 105.5,27.75 105.113,32 H 108 c 4.41,0 8,3.586 8,8 v 48 c 0,4.414 -3.59,8 -8,8 H 68 v 4 c 0,2.211 -1.789,4 -4,4 -2.211,0 -4,-1.789 -4,-4 V 96 H 20 c -4.41,0 -8,-3.586 -8,-8 V 40 c 0,-4.414 3.59,-8 8,-8 h 3.707 L 24.25,28.75 29,24 H 20 C 11.164,24 4,31.164 4,40 v 48 c 0,8.836 7.164,16 16,16 h 32.738 c 1.656,4.648 6.055,8 11.262,8 5.207,0 9.605,-3.352 11.262,-8 H 108 c 8.836,0 16,-7.164 16,-16 V 40 c 0,-8.836 -7.164,-16 -16,-16 z"
           id="path2"
           inkscape:connector-curvature="0"
           style="fill:#546e7a" /></g></g><path
       style="fill:#cfd8dc;stroke-width:0.89265537"
       d="m 52.644068,43.186441 v 0 H 38.361582 v 0 -7.141243 0 h 14.282486 v 0 z"
       id="path8"
       inkscape:connector-curvature="0" /><path
       style="fill:#cfd8dc;stroke-width:0.89265537"
       d="m 52.644068,57.468926 v 0 H 38.361582 v 0 -7.141243 0 h 14.282486 v 0 z"
       id="path10"
       inkscape:connector-curvature="0" /><path
       style="fill:#cfd8dc;stroke-width:0.89265537"
       d="m 52.644068,71.751412 v 0 H 38.361582 v 0 -7.141243 0 h 14.282486 v 0 z"
       id="path12"
       inkscape:connector-curvature="0" /><path
       style="fill:#cfd8dc;stroke-width:0.89265537"
       d="m 88.350282,43.186441 v 0 H 74.067796 v 0 -7.141243 0 h 14.282486 v 0 z"
       id="path14"
       inkscape:connector-curvature="0" /><path
       style="fill:#cfd8dc;stroke-width:0.89265537"
       d="m 88.350282,57.468926 v 0 H 74.067796 v 0 -7.141243 0 h 14.282486 v 0 z"
       id="path16"
       inkscape:connector-curvature="0" /><path
       style="fill:#cfd8dc;stroke-width:0.89265537"
       d="m 88.350282,71.751412 v 0 H 74.067796 v 0 -7.141243 0 h 14.282486 v 0 z"
       id="path18"
       inkscape:connector-curvature="0" /><path
       style="fill:#b0bec5;stroke-width:0.89265537"
       d="m 81.209039,21.762712 c -6.171819,0 -12.305254,1.653197 -17.853107,4.790881 -5.547853,-3.137684 -11.681288,-4.790881 -17.853107,-4.790881 -7.517944,0 -15.035887,2.322689 -21.423729,6.980565 0,14.526181 0,57.960113 0,58.183277 0,1.973661 1.59696,3.570621 3.570621,3.570621 0.352599,0 12.347209,-4.302599 17.853108,-4.302599 5.672824,0 11.297446,1.450565 16.47931,4.114249 l 0.05892,-0.03481 0.0036,-0.0071 c 0.407944,0.160678 0.84356,0.265119 1.311311,0.265119 0.467751,0 0.903367,-0.104441 1.311311,-0.265119 l 0.0036,0.0071 0.05892,0.03481 c 5.181864,-2.663684 10.806485,-4.114249 16.47931,-4.114249 5.505899,0 17.500507,4.302599 17.853107,4.302599 1.973656,0 3.570616,-1.59696 3.570616,-3.570621 0,-0.223164 0,-43.656204 0,-58.183277 -6.387836,-4.657876 -13.905779,-6.980565 -21.423723,-6.980565 z m -49.9887,59.668655 V 32.648644 c 4.351695,-2.447661 9.226486,-3.724158 14.282486,-3.724158 5.056,0 9.930791,1.276497 14.282485,3.724158 0,11.500079 0,37.282644 0,48.78183 -4.550757,-1.589819 -9.358598,-2.399457 -14.282485,-2.399457 -4.923887,0 -9.731729,0.810531 -14.282486,2.40035 z m 64.271185,0 c -4.550756,-1.589819 -9.358598,-2.399458 -14.282485,-2.399458 -4.923887,0 -9.731729,0.808746 -14.282486,2.399458 0,-11.500079 0,-37.282644 0,-48.78183 4.351695,-2.447661 9.226486,-3.724159 14.282486,-3.724159 5.056,0 9.930791,1.276498 14.282485,3.724159 z"
       id="path20"
       inkscape:connector-curvature="0" /></g></svg>

<svg version="1.1" height="128px" viewBox="0 0 128 128" width="128px" xmlns="http://www.w3.org/2000/svg"><circle cx="64" cy="64" r="64" fill="#d35627"/><g fill="#fff"><rect x="15.729" y="33.627" width="96" height="61.831"/><rect x="29.966" y="28.068" width="67.932" height="8.678"/><rect x="58.034" y="91.932" width="12.475" height="9.7627"/></g><g><g transform="matrix(.89266 0 0 .89266 6.226 7.4802)"><path d="m108 24h-7.223l4.723 3.75-0.387 4.25h2.887c4.41 0 8 3.586 8 8v48c0 4.414-3.59 8-8 8h-40v4c0 2.211-1.789 4-4 4s-4-1.789-4-4v-4h-40c-4.41 0-8-3.586-8-8v-48c0-4.414 3.59-8 8-8h3.707l0.543-3.25 4.75-4.75h-9c-8.836 0-16 7.164-16 16v48c0 8.836 7.164 16 16 16h32.738c1.656 4.648 6.055 8 11.262 8s9.605-3.352 11.262-8h32.738c8.836 0 16-7.164 16-16v-48c0-8.836-7.164-16-16-16z" fill="#546e7a"/></g><g fill="#cfd8dc" stroke-width=".89266"><path d="m52.644 43.186h-14.282v-7.1412h14.282z"/><path d="m52.644 57.469h-14.282v-7.1412h14.282z"/><path d="m52.644 71.751h-14.282v-7.1412h14.282z"/><path d="m88.35 43.186h-14.282v-7.1412h14.282z"/><path d="m88.35 57.469h-14.282v-7.1412h14.282z"/><path d="m88.35 71.751h-14.282v-7.1412h14.282z"/></g><path d="m81.209 21.763c-6.1718 0-12.305 1.6532-17.853 4.7909-5.5479-3.1377-11.681-4.7909-17.853-4.7909-7.5179 0-15.036 2.3227-21.424 6.9806v58.183c0 1.9737 1.597 3.5706 3.5706 3.5706 0.3526 0 12.347-4.3026 17.853-4.3026 5.6728 0 11.297 1.4506 16.479 4.1142l0.05892-0.03481 0.0036-0.0071c0.40794 0.16068 0.84356 0.26512 1.3113 0.26512s0.90337-0.10444 1.3113-0.26512l0.0036 0.0071 0.05892 0.03481c5.1819-2.6637 10.806-4.1142 16.479-4.1142 5.5059 0 17.501 4.3026 17.853 4.3026 1.9737 0 3.5706-1.597 3.5706-3.5706v-58.183c-6.3878-4.6579-13.906-6.9806-21.424-6.9806zm-49.989 59.669v-48.783c4.3517-2.4477 9.2265-3.7242 14.282-3.7242s9.9308 1.2765 14.282 3.7242v48.782c-4.5508-1.5898-9.3586-2.3995-14.282-2.3995s-9.7317 0.81053-14.282 2.4004zm64.271 0c-4.5508-1.5898-9.3586-2.3995-14.282-2.3995s-9.7317 0.80875-14.282 2.3995v-48.782c4.3517-2.4477 9.2265-3.7242 14.282-3.7242s9.9308 1.2765 14.282 3.7242z" fill="#b0bec5" stroke-width=".89266"/></g></svg>
